X:231
T:Polska fr{\aa}n Sk{\aa}ne
R:sl\"angpolska
Z:id:hn-sp-231
M:3/4
L:1/16
K:Dm =B
D2d2 d2c2 cdcB | AGAB cdcB A2D2 | D2d2 d2c2 cdcB | AGAB cdcB A4 :|
|: E4 A4 F2C2 | FGAB cdcB A2A2 | E4 A4 F2C2 | FGAB cdcB A4 |
A2d2 c2B2 A2G2 | GFEF G4 F4 :|
<end>
<start>
